public/images/hero-1.svg

<?xml version="1.0" encoding="UTF-8"?>
<svg fill="none" viewBox="0 0 133 133" xmlns="http://www.w3.org/2000/svg">
  <g clip-path="url(#a)">
    <path d="m65.5 38h-51.155c-7.3701 0-13.345 5.7566-13.345 12.858v47.145c0 7.1013 5.9747 12.857 13.345 12.857h33.362c1.3983-5e-3 2.7171 0.626 3.5586 1.702l10.723 13.728c0.822 1.075 2.1257 1.71 3.5119 1.71s2.6899-0.635 3.5119-1.71l10.723-13.715c0.8401-1.079 2.1585-1.715 3.5586-1.715h33.362c7.37 0 13.345-5.756 13.345-12.857v-47.145c0-7.1011-5.975-12.858-13.345-12.858h-51.155z" fill="#E8EDFC"/>
    <path d="M4 98.4706C4 105.39 9.67106 111 16.6667 111H23C16.0044 111 10.3333 105.39 10.3333 98.4706V52.5294C10.3333 45.6096 16.0044 40 23 40H16.6667C9.67106 40 4 45.6096 4 52.5294V98.4706Z" fill="#fff"/>
    <path d="m67.054 76.386c0.8325-0.8315 1.3002-1.9599 1.3002-3.1366 0-1.1766-0.4677-2.305-1.3002-3.1366-0.7836-0.7876-1.8378-1.2473-2.9482-1.2856-1.0965-0.0605-1.9687-0.9422-2.0171-2.0394-0.0817-1.7577-1.1917-3.3021-2.8316-3.9398-1.64-0.6378-3.5017-0.249-4.7494 0.9917l42.338-42.316 10.973 10.972 1.551 1.5738-42.316 42.316z" fill="#E8EDFC"/>
    <path d="m74.037 114.82-10.687 14.187c-0.0532 0.071-0.1197 0.117-0.1751 0.184 0.8489 1.029 2.1243 1.609 3.4574 1.573 1.3332-0.036 2.5755-0.684 3.3677-1.757l10.687-14.187c0.8372-1.116 2.1512-1.773 3.5466-1.773h-6.65c-1.3954 0-2.7094 0.657-3.5466 1.773z" fill="#CAD9FC"/>
    <path d="m115.64 27.797-6.273 6.2732-1.551-1.5739-10.973-10.972 6.2508-6.2731 12.546 12.546z" fill="#A4C2F7"/>
    <path d="m126.62 16.824-10.972 10.972-12.547-12.546 10.973-10.973c2.605-2.5932 6.816-2.5932 9.421 0l3.125 3.1477c2.593 2.5963 2.593 6.8024 0 9.3987z" fill="#E8EDFC"/>
    <path d="m126.62 7.4258-3.125-3.1477c-2.136-2.1208-5.43-2.5426-8.031-1.0285 0.503 0.28089 0.967 0.62669 1.381 1.0285l3.125 3.1477c2.593 2.5963 2.593 6.8023 0 9.3987l-7.648 7.6475 3.325 3.325 10.973-10.972c2.593-2.5964 2.593-6.8024 0-9.3987z" fill="#CAD9FC"/>
    <path d="m67.054 76.386-9.7977 4.522c-0.5288-1.7111-1.4731-3.2647-2.7487-4.522-1.269-1.2605-2.8187-2.2025-4.522-2.7487l4.522-9.7976c1.2477-1.2407 3.1095-1.6295 4.7494-0.9917 1.64 0.6377 2.75 2.1821 2.8316 3.9398 0.0485 1.0972 0.9207 1.9789 2.0172 2.0394 1.1104 0.0383 2.1645 0.498 2.9482 1.2856 0.8324 0.8316 1.3002 1.96 1.3002 3.1366 0 1.1767-0.4678 2.3051-1.3002 3.1366z" fill="#E8EDFC"/>
    <path d="m57.256 80.908-8.0243 3.724c-0.8523 0.4223-1.879 0.2537-2.5515-0.4188-0.6726-0.6726-0.8411-1.6993-0.4189-2.5515l3.724-8.0244c1.7033 0.5462 3.253 1.4882 4.522 2.7487 1.2756 1.2573 2.2199 2.8108 2.7487 4.522z" fill="#A4C2F7"/>
    <path d="m52.313 114.81 10.687 14.2c1.2598 1.692 3.5491 2.241 5.4397 1.306 0.5483-0.249 1.0221-0.636 1.3743-1.124-0.0532-0.065-0.113-0.116-0.164-0.182l-10.687-14.2c-0.8386-1.113-2.1531-1.765-3.5466-1.76h-6.65c1.3935-5e-3 2.708 0.647 3.5466 1.76z" fill="#fff"/>
    <path d="M0 50.9833H4.43333V68.7166H0V50.9833Z" fill="#fff"/>
    <path d="m117.48 37.683h-6.65c7.346 0 13.3 5.9547 13.3 13.3v48.767c0 7.345-5.954 13.3-13.3 13.3h6.65c7.346 0 13.3-5.955 13.3-13.3v-48.767c0-7.3453-5.954-13.3-13.3-13.3z" fill="#CAD9FC"/>
    <path d="m2.2167 62.067c1.2242 0 2.2167-0.9924 2.2167-2.2167 0-1.2242-0.99243-2.2166-2.2167-2.2166-1.2242 0-2.2167 0.9924-2.2167 2.2166 0 1.2243 0.99244 2.2167 2.2167 2.2167z" fill="#2276F1"/>
    <path d="m117.48 35.467c-1.224 0-2.216 0.9924-2.216 2.2166 0 1.2243 0.992 2.2167 2.216 2.2167 6.118 0.0073 11.076 4.9652 11.084 11.083v48.767c-8e-3 6.118-4.966 11.076-11.084 11.083h-33.25c-2.0923 4e-3 -4.0618 0.989-5.32 2.66l-10.686 14.187c-0.401 0.554-1.0437 0.883-1.7279 0.883s-1.3269-0.329-1.7279-0.883l-10.684-14.204c-1.2617-1.666-3.2307-2.644-5.32-2.643h-33.25c-6.1182-7e-3 -11.076-4.965-11.083-11.083v-31.033c0-1.2243-0.99243-2.2167-2.2167-2.2167-1.2242 0-2.2167 0.9924-2.2167 2.2167v31.033c0.010991 8.565 6.9516 15.506 15.517 15.517h33.25c0.6984-4e-3 1.3568 0.326 1.7733 0.886l10.689 14.187c1.2365 1.672 3.192 2.658 5.2712 2.66 2.0778-2e-3 4.0316-0.989 5.2668-2.66l10.693-14.187c0.4186-0.558 1.0756-0.886 1.7733-0.886h33.25c8.565-0.011 15.506-6.952 15.517-15.517v-48.767c-0.011-8.565-6.952-15.506-15.517-15.517z" fill="#2276F1"/>
    <path d="m0 50.983c0 1.2243 0.99244 2.2167 2.2167 2.2167 1.2242 0 2.2167-0.9924 2.2167-2.2167 0.00733-6.1181 4.9652-11.076 11.083-11.083h50.983c1.2242 0 2.2167-0.9924 2.2167-2.2167 0-1.2242-0.9925-2.2166-2.2167-2.2166h-50.983c-8.5651 0.011-15.506 6.9516-15.517 15.517z" fill="#2276F1"/>
    <path d="m128.18 18.398c3.462-3.4624 3.462-9.075 0-12.537l-3.134-3.141c-3.507-3.3519-9.03-3.3519-12.537 0l-10.973 10.97-48.58 48.583c-0.1837 0.1846-0.3338 0.3999-0.4433 0.6362l-8.2349 17.778c-0.8744 1.7032-0.5374 3.7773 0.8312 5.1161 0.824 0.8379 1.9481 1.3126 3.1233 1.3189 0.6714-0.0011 1.3333-0.159 1.9329-0.4611l17.818-8.2526c0.2367-0.1088 0.4522-0.2589 0.6362-0.4434l48.591-48.589 10.97-10.977zm-12.537-12.544c1.754-1.6754 4.515-1.6754 6.269 0l3.134 3.1344c1.731 1.7312 1.731 4.5375 0 6.2687l-9.403 9.4054-3.137-3.1366 1.57-1.5761c0.782-0.8779 0.743-2.2142-0.09-3.0446-0.833-0.8305-2.169-0.8659-3.045-0.0809l-1.569 1.5672-3.134-3.1344 9.405-9.4031zm-59.314 59.345c0.8893-0.6271 2.0987-0.534 2.8816 0.2217 0.3929 0.3929 0.6239 0.919 0.6473 1.4741 0.1122 2.2424 1.905 4.0352 4.1474 4.1474 0.8185 0.0356 1.5506 0.5198 1.9037 1.259 0.3532 0.7393 0.2698 1.613-0.2168 2.2721l-7.3305 3.376c-1.2081-2.3253-3.1058-4.2199-5.4331-5.4242l3.4004-7.3261zm-8.0598 17.399 2.8018-6.0471c1.3756 0.7503 2.5083 1.8777 3.2652 3.2496l-6.067 2.7975zm61.102-51.664c-0.87-0.8401-2.252-0.828-3.107 0.027s-0.867 2.2376-0.027 3.1074l-36.34 36.338c-1.0155-2.2164-3.1839-3.6799-5.6193-3.7927-0.0889-1.6297-0.7755-3.1695-1.9285-4.3247-0.5431-0.5306-1.1786-0.9573-1.8753-1.2591l36.353-36.353 3.1388 3.121c0.8693 0.8401 2.2523 0.8281 3.1073-0.027 0.855-0.855 0.867-2.2376 0.027-3.1073l-3.1343-3.1366 3.1363-3.1278 4.697 4.6972 4.698 4.6971-3.126 3.141z" fill="#2276F1"/>
    <path d="m120.35 13.69c0.635-0.6339 0.824-1.5873 0.481-2.4157s-1.151-1.3686-2.048-1.3686c-0.896 0-1.705 0.54018-2.048 1.3686s-0.153 1.7818 0.481 2.4157c0.866 0.8654 2.269 0.8654 3.134 0z" fill="#2276F1"/>
    <path d="m95.27 32.499-28.214 28.216c-0.6117 0.5484-0.87 1.3902-0.671 2.1873 0.1989 0.7971 0.8224 1.4188 1.62 1.6154 0.7977 0.1967 1.6387-0.0639 2.1854-0.6772l28.216-28.207c0.5599-0.5603 0.7784-1.3767 0.5731-2.1418-0.2053-0.765-0.8031-1.3624-1.5683-1.5671-0.7652-0.2048-1.5815 0.0143-2.1414 0.5746z" fill="#2276F1"/>
    <path d="m13.3 46.55c-1.2242 0-2.2167 0.9925-2.2167 2.2167 0 1.2243 0.9925 2.2167 2.2167 2.2167h2.2167c1.2242 0 2.2166-0.9924 2.2166-2.2167 0-1.2242-0.9924-2.2167-2.2166-2.2167h-2.2167z" fill="#2276F1"/>
    <path d="m57.633 48.767c0-1.2242-0.9924-2.2167-2.2166-2.2167h-31.033c-1.2242 0-2.2166 0.9925-2.2166 2.2167 0 1.2243 0.9924 2.2167 2.2166 2.2167h31.033c1.2242 0 2.2166-0.9924 2.2166-2.2167z" fill="#2276F1"/>
    <path d="m115.27 104.18h4.433c1.224 0 2.217-0.992 2.217-2.216 0-1.225-0.993-2.217-2.217-2.217h-4.433c-1.225 0-2.217 0.992-2.217 2.217 0 1.224 0.992 2.216 2.217 2.216z" fill="#2276F1"/>
    <path d="m84.233 99.75c-1.2242 0-2.2166 0.992-2.2166 2.217 0 1.224 0.9924 2.216 2.2166 2.216h22.167c1.224 0 2.217-0.992 2.217-2.216 0-1.225-0.993-2.217-2.217-2.217h-22.167z" fill="#2276F1"/>
  </g>
  <defs>
    <clipPath id="a">
      <rect width="133" height="133" fill="#fff"/>
    </clipPath>
  </defs>
</svg>

<svg width="133" height="133" viewBox="0 0 133 133" fill="none" xmlns="http://www.w3.org/2000/svg">
<g clip-path="url(#clip0)">
<path d="M65.5 38H14.3448C6.97468 38 1 43.7566 1 50.8577V98.0027C1 105.104 6.97468 110.86 14.3448 110.86H47.7069C49.1052 110.855 50.424 111.486 51.2655 112.562L61.9881 126.29C62.8101 127.365 64.1138 128 65.5 128C66.8862 128 68.1899 127.365 69.0119 126.29L79.7345 112.575C80.5746 111.496 81.893 110.86 83.2931 110.86H116.655C124.025 110.86 130 105.104 130 98.0027V50.8577C130 43.7566 124.025 38 116.655 38H65.5Z" fill="#E8EDFC"/>
<path d="M4 98.4706C4 105.39 9.67106 111 16.6667 111H23C16.0044 111 10.3333 105.39 10.3333 98.4706V52.5294C10.3333 45.6096 16.0044 40 23 40H16.6667C9.67106 40 4 45.6096 4 52.5294V98.4706Z" fill="white"/>
<path d="M67.0542 76.3863C67.8867 75.5548 68.3544 74.4264 68.3544 73.2497C68.3544 72.0731 67.8867 70.9447 67.0542 70.1131C66.2706 69.3255 65.2164 68.8658 64.106 68.8275C63.0095 68.767 62.1373 67.8853 62.0889 66.7881C62.0072 65.0304 60.8972 63.486 59.2573 62.8483C57.6173 62.2105 55.7556 62.5993 54.5079 63.84L96.8462 21.5238L107.819 32.4963L109.37 34.0701L67.0542 76.3863Z" fill="#E8EDFC"/>
<path d="M74.0367 114.823L63.3501 129.01C63.2969 129.081 63.2304 129.127 63.175 129.194C64.0239 130.223 65.2993 130.803 66.6324 130.767C67.9656 130.731 69.2079 130.083 70.0001 129.01L80.6867 114.823C81.5239 113.707 82.8379 113.05 84.2333 113.05H77.5833C76.1879 113.05 74.8739 113.707 74.0367 114.823Z" fill="#CAD9FC"/>
<path d="M115.643 27.797L109.37 34.0702L107.819 32.4963L96.8462 21.5238L103.097 15.2507L115.643 27.797Z" fill="#A4C2F7"/>
<path d="M126.616 16.8245L115.644 27.797L103.097 15.2507L114.07 4.27815C116.675 1.68495 120.886 1.68495 123.491 4.27815L126.616 7.42582C129.209 10.0221 129.209 14.2282 126.616 16.8245Z" fill="#E8EDFC"/>
<path d="M126.616 7.42578L123.491 4.27812C121.355 2.15733 118.061 1.73547 115.46 3.24958C115.963 3.53047 116.427 3.87627 116.841 4.27812L119.966 7.42578C122.559 10.0221 122.559 14.2281 119.966 16.8245L112.318 24.472L115.643 27.797L126.616 16.8245C129.209 14.2281 129.209 10.0221 126.616 7.42578Z" fill="#CAD9FC"/>
<path d="M67.0542 76.3863L57.2565 80.9083C56.7277 79.1972 55.7834 77.6436 54.5078 76.3863C53.2388 75.1258 51.6891 74.1838 49.9858 73.6376L54.5078 63.84C55.7555 62.5993 57.6173 62.2105 59.2572 62.8483C60.8972 63.486 62.0072 65.0304 62.0888 66.7881C62.1373 67.8853 63.0095 68.767 64.106 68.8275C65.2164 68.8658 66.2705 69.3255 67.0542 70.1131C67.8866 70.9447 68.3544 72.0731 68.3544 73.2497C68.3544 74.4264 67.8866 75.5548 67.0542 76.3863Z" fill="#E8EDFC"/>
<path d="M57.2565 80.9083L49.2322 84.6323C48.3799 85.0546 47.3532 84.886 46.6807 84.2135C46.0081 83.5409 45.8396 82.5142 46.2618 81.662L49.9858 73.6376C51.6891 74.1838 53.2388 75.1258 54.5078 76.3863C55.7834 77.6436 56.7277 79.1971 57.2565 80.9083Z" fill="#A4C2F7"/>
<path d="M52.3133 114.81L62.9999 129.01C64.2597 130.702 66.549 131.251 68.4396 130.316C68.9879 130.067 69.4617 129.68 69.8139 129.192C69.7607 129.127 69.7009 129.076 69.6499 129.01L58.9633 114.81C58.1247 113.697 56.8102 113.045 55.4167 113.05L48.7667 113.05C50.1602 113.045 51.4747 113.697 52.3133 114.81Z" fill="white"/>
<path d="M0 50.9833H4.43333V68.7166H0V50.9833Z" fill="white"/>
<path d="M117.483 37.6833H110.833C118.179 37.6833 124.133 43.638 124.133 50.9833V99.75C124.133 107.095 118.179 113.05 110.833 113.05H117.483C124.829 113.05 130.783 107.095 130.783 99.75V50.9833C130.783 43.638 124.829 37.6833 117.483 37.6833Z" fill="#CAD9FC"/>
<path d="M2.21667 62.0667C3.4409 62.0667 4.43333 61.0743 4.43333 59.85C4.43333 58.6258 3.4409 57.6334 2.21667 57.6334C0.992435 57.6334 0 58.6258 0 59.85C0 61.0743 0.992435 62.0667 2.21667 62.0667Z" fill="#2276F1"/>
<path d="M117.483 35.4667C116.259 35.4667 115.267 36.4591 115.267 37.6833C115.267 38.9076 116.259 39.9 117.483 39.9C123.601 39.9073 128.559 44.8652 128.567 50.9833V99.75C128.559 105.868 123.601 110.826 117.483 110.833H84.2333C82.141 110.837 80.1715 111.822 78.9133 113.493L68.2268 127.68C67.8258 128.234 67.1831 128.563 66.4989 128.563C65.8147 128.563 65.172 128.234 64.771 127.68L54.0867 113.476C52.825 111.81 50.856 110.832 48.7667 110.833H15.5167C9.39855 110.826 4.44066 105.868 4.43333 99.75V68.7167C4.43333 67.4924 3.4409 66.5 2.21667 66.5C0.992435 66.5 0 67.4924 0 68.7167V99.75C0.010991 108.315 6.9516 115.256 15.5167 115.267H48.7667C49.4651 115.263 50.1235 115.593 50.54 116.153L61.2288 130.34C62.4653 132.012 64.4208 132.998 66.5 133C68.5778 132.998 70.5316 132.011 71.7668 130.34L82.46 116.153C82.8786 115.595 83.5356 115.267 84.2333 115.267H117.483C126.048 115.256 132.989 108.315 133 99.75V50.9833C132.989 42.4183 126.048 35.4777 117.483 35.4667Z" fill="#2276F1"/>
<path d="M0 50.9833C0 52.2076 0.992436 53.2 2.21667 53.2C3.4409 53.2 4.43333 52.2076 4.43333 50.9833C4.44066 44.8652 9.39855 39.9073 15.5167 39.9H66.5C67.7242 39.9 68.7167 38.9076 68.7167 37.6833C68.7167 36.4591 67.7242 35.4667 66.5 35.4667H15.5167C6.95161 35.4777 0.010991 42.4183 0 50.9833Z" fill="#2276F1"/>
<path d="M128.185 18.3983C131.647 14.9359 131.647 9.32331 128.185 5.86088L125.051 2.71986C121.544 -0.632044 116.021 -0.632044 112.514 2.71986L101.541 13.6901L52.9606 62.2728C52.7769 62.4574 52.6268 62.6727 52.5173 62.909L44.2824 80.6867C43.408 82.3899 43.745 84.464 45.1136 85.8028C45.9376 86.6407 47.0617 87.1154 48.2369 87.1217C48.9083 87.1206 49.5702 86.9627 50.1698 86.6606L67.9874 78.408C68.2241 78.2992 68.4396 78.1491 68.6236 77.9646L117.215 29.3753L128.185 18.3983ZM115.648 5.85423C117.402 4.17884 120.163 4.17884 121.917 5.85423L125.051 8.9886C126.782 10.7198 126.782 13.5261 125.051 15.2573L115.648 24.6627L112.511 21.5261L114.081 19.95C114.863 19.0721 114.824 17.7358 113.991 16.9054C113.158 16.0749 111.822 16.0395 110.946 16.8245L109.377 18.3917L106.243 15.2573L115.648 5.85423ZM56.3344 65.1988C57.2237 64.5717 58.4331 64.6648 59.216 65.4205C59.6089 65.8134 59.8399 66.3395 59.8633 66.8946C59.9755 69.137 61.7683 70.9298 64.0107 71.042C64.8292 71.0776 65.5613 71.5618 65.9144 72.301C66.2676 73.0403 66.1842 73.914 65.6976 74.5731L58.3671 77.9491C57.159 75.6238 55.2613 73.7292 52.934 72.5249L56.3344 65.1988ZM48.2746 82.5975L51.0764 76.5504C52.452 77.3007 53.5847 78.4281 54.3416 79.8L48.2746 82.5975ZM109.377 30.9336C108.507 30.0935 107.125 30.1056 106.27 30.9606C105.415 31.8156 105.403 33.1982 106.243 34.068L69.9026 70.4058C68.8871 68.1894 66.7187 66.7259 64.2833 66.6131C64.1944 64.9834 63.5078 63.4436 62.3548 62.2884C61.8117 61.7578 61.1762 61.3311 60.4795 61.0293L96.8329 24.676L99.9717 27.797C100.841 28.6371 102.224 28.6251 103.079 27.77C103.934 26.915 103.946 25.5324 103.106 24.6627L99.9717 21.5261L103.108 18.3983L107.805 23.0955L112.503 27.7926L109.377 30.9336Z" fill="#2276F1"/>
<path d="M120.349 13.6901C120.984 13.0562 121.173 12.1028 120.83 11.2744C120.487 10.446 119.679 9.90582 118.782 9.90582C117.886 9.90582 117.077 10.446 116.734 11.2744C116.391 12.1028 116.581 13.0562 117.215 13.6901C118.081 14.5555 119.484 14.5555 120.349 13.6901Z" fill="#2276F1"/>
<path d="M95.2701 32.4986L67.0564 60.7145C66.4447 61.2629 66.1864 62.1047 66.3854 62.9018C66.5843 63.6989 67.2078 64.3206 68.0054 64.5172C68.8031 64.7139 69.6441 64.4533 70.1908 63.84L98.4067 35.6329C98.9666 35.0726 99.1851 34.2562 98.9798 33.4911C98.7745 32.7261 98.1767 32.1287 97.4115 31.924C96.6463 31.7192 95.83 31.9383 95.2701 32.4986Z" fill="#2276F1"/>
<path d="M13.3 46.55C12.0758 46.55 11.0833 47.5425 11.0833 48.7667C11.0833 49.991 12.0758 50.9834 13.3 50.9834H15.5167C16.7409 50.9834 17.7333 49.991 17.7333 48.7667C17.7333 47.5425 16.7409 46.55 15.5167 46.55H13.3Z" fill="#2276F1"/>
<path d="M57.6333 48.7667C57.6333 47.5425 56.6409 46.55 55.4167 46.55H24.3833C23.1591 46.55 22.1667 47.5425 22.1667 48.7667C22.1667 49.991 23.1591 50.9834 24.3833 50.9834H55.4167C56.6409 50.9834 57.6333 49.991 57.6333 48.7667Z" fill="#2276F1"/>
<path d="M115.267 104.183H119.7C120.924 104.183 121.917 103.191 121.917 101.967C121.917 100.742 120.924 99.75 119.7 99.75H115.267C114.042 99.75 113.05 100.742 113.05 101.967C113.05 103.191 114.042 104.183 115.267 104.183Z" fill="#2276F1"/>
<path d="M84.2333 99.75C83.0091 99.75 82.0167 100.742 82.0167 101.967C82.0167 103.191 83.0091 104.183 84.2333 104.183H106.4C107.624 104.183 108.617 103.191 108.617 101.967C108.617 100.742 107.624 99.75 106.4 99.75H84.2333Z" fill="#2276F1"/>
</g>
<defs>
<clipPath id="clip0">
<rect width="133" height="133" fill="white"/>
</clipPath>
</defs>
</svg>
